packages/foundations/assets/icons/functional/images/environment/leaf_16.svg

<svg width="16" height="16" viewBox="0 0 16 16" fill="none" xmlns="http://www.w3.org/2000/svg">
<g clip-path="url(#clip0_185_819)">
<path fill-rule="evenodd" clip-rule="evenodd" d="M13.6729 3.87921C14.1369 3.95945 14.4881 4.42044 14.3656 4.87508C13.351 8.63931 11.7226 10.9245 9.69059 11.8232C8.19937 12.4828 6.57062 12.2981 5.53098 11.56C4.39679 11.9508 3.26127 11.954 2.12444 11.5694C1.1484 11.2135 1.69237 9.70111 2.66185 10.0623C4.16014 10.6205 6.38303 9.93013 8.64405 7.48566C9.53803 6.67109 10.4741 7.79415 9.875 8.5078C9.09095 9.37337 8.28215 10.0765 7.44859 10.6172C7.94114 10.6787 8.50449 10.6111 9.04339 10.36C10.5727 9.64741 11.7421 7.98459 12.5515 5.37154C9.65631 5.29243 7.65678 6.12442 6.55294 7.86749C5.84442 9.0585 4.54738 8.16608 5.092 7.2128C5.9727 5.74011 7.29221 4.76972 8.94738 4.22387C10.3115 3.77401 11.849 3.65954 13.6729 3.87921Z" fill="#1A1C1F"/>
</g>
<defs>
<clipPath id="clip0_185_819">
<rect width="16" height="16" fill="white"/>
</clipPath>
</defs>
</svg>

<svg xmlns="http://www.w3.org/2000/svg" width="16" height="16" fill="none"><g clip-path="url(#a)"><path fill="#1A1C1F" fill-rule="evenodd" d="M13.673 3.88c.464.08.815.54.693.995-1.015 3.764-2.643 6.05-4.675 6.948-1.492.66-3.12.475-4.16-.263a5.13 5.13 0 0 1-3.407.01c-.976-.357-.432-1.869.538-1.508 1.498.559 3.721-.132 5.982-2.576.894-.815 1.83.308 1.231 1.022q-1.176 1.298-2.426 2.11a2.94 2.94 0 0 0 1.594-.258q2.295-1.069 3.509-4.988-4.343-.12-6 2.495c-.708 1.192-2.005.3-1.46-.654.88-1.473 2.2-2.443 3.855-2.99 1.365-.449 2.902-.563 4.726-.344" clip-rule="evenodd"/></g><defs><clipPath id="a"><path fill="#fff" d="M0 0h16v16H0z"/></clipPath></defs></svg>
